CSETWebApi/CSETWeb_Api/CSETWeb_ApiCore/Diagram/src/main/webapp/img/lib/mscae/VPN_Gateway.svg

<svg xmlns="http://www.w3.org/2000/svg" width="44.8" height="50"><path d="M39.5 18.5v-2.2c0-4.4-1.6-8.5-4.4-11.4-2.6-3-8.4-4.9-12.7-4.9S12.3 1.9 9.7 4.9c-2.7 2.9-4.4 7-4.4 11.4v2.2l7.9.9v-2c0-2.6.9-5.9 2.4-7.6s4.7-2.5 6.8-2.6c2.1 0 5.3.9 6.8 2.6a9.55 9.55 0 0 1 2.4 6.4v3.2l7.9-.9z" fill="#a0a1a2"/><path d="M5.3 18.5c-3.9 0-5.3 2.3-5.3 5.3v20.9C0 47.3 1.6 50 4.6 50h35.6c3.4 0 4.6-2.7 4.6-5.3V23.8c0-2.7-1.1-5.3-5.3-5.3H5.3z" fill="#59b4d9"/><g fill="#fff"><path d="M31.5 18.5H5.3c-3.9 0-5.3 2.3-5.3 5.3v20.9C0 47.3 1.6 50 4.6 50h6.7l20.2-31.5z" opacity=".15"/><path d="M16.4 27.1l5.8-5.8 5.8 5.8h-4.1v4.2h-3.5v-4.2h-4zM5.7 35.9v-3.4h6v-4l5.6 5.6-5.6 5.6v-3.9h-6v.1zm16.5 11.3l-5.9-5.9h4.1v-4.1h3.5v4.1h4.2l-5.9 5.9zm16.5-11.3h-6v4L27 34.2l5.7-5.7v4h6v3.4z"/></g></svg>

<?xml version="1.0" encoding="UTF-8" standalone="no"?>
<svg
   xmlns:dc="http://purl.org/dc/elements/1.1/"
   xmlns:cc="http://creativecommons.org/ns#"
   xmlns:rdf="http://www.w3.org/1999/02/22-rdf-syntax-ns#"
   xmlns:svg="http://www.w3.org/2000/svg"
   xmlns="http://www.w3.org/2000/svg"
   xmlns:sodipodi="http://sodipodi.sourceforge.net/DTD/sodipodi-0.dtd"
   xmlns:inkscape="http://www.inkscape.org/namespaces/inkscape"
   version="1.1"
   id="Layer_1"
   x="0px"
   y="0px"
   width="44.799999"
   height="50"
   viewBox="0 0 44.799999 50"
   enable-background="new 0 0 50 50"
   xml:space="preserve"
   inkscape:version="0.91 r13725"
   sodipodi:docname="Azure VPN Gateway_color.svg"><metadata
     id="metadata15"><rdf:RDF><cc:Work
         rdf:about=""><dc:format>image/svg+xml</dc:format><dc:type
           rdf:resource="http://purl.org/dc/dcmitype/StillImage" /><dc:title></dc:title></cc:Work></rdf:RDF></metadata><defs
     id="defs13" /><sodipodi:namedview
     pagecolor="#ffffff"
     bordercolor="#666666"
     borderopacity="1"
     objecttolerance="10"
     gridtolerance="10"
     guidetolerance="10"
     inkscape:pageopacity="0"
     inkscape:pageshadow="2"
     inkscape:window-width="1920"
     inkscape:window-height="1018"
     id="namedview11"
     showgrid="false"
     fit-margin-top="0"
     fit-margin-left="0"
     fit-margin-right="0"
     fit-margin-bottom="0"
     inkscape:zoom="10.363697"
     inkscape:cx="20.057165"
     inkscape:cy="17.047137"
     inkscape:window-x="-8"
     inkscape:window-y="-8"
     inkscape:window-maximized="1"
     inkscape:current-layer="Layer_1" /><path
     d="M 39.5,18.5 39.5,18.5 39.5,16.3 C 39.5,11.9 37.9,7.8 35.1,4.9 32.5,1.9 26.7,0 22.4,0 18.1,0 12.3,1.9 9.7,4.9 7,7.8 5.3,11.9 5.3,16.3 L 5.3,18.5 5.3,18.5 13.2,19.4 13.2,17.4 C 13.2,14.8 14.1,11.5 15.6,9.8 17.1,8.1 20.3,7.3 22.4,7.2 24.5,7.2 27.7,8.1 29.2,9.8 30.7,11.5 31.6,13.7 31.6,16.2 L 31.6,19.4 39.5,18.5 Z"
     id="path3"
     inkscape:connector-curvature="0"
     style="fill:#a0a1a2" /><path
     d="M 5.3,18.5 5.3,18.5 C 1.4,18.5 0,20.8 0,23.8 L 0,44.7 C 0,47.3 1.6,50 4.6,50 L 40.2,50 C 43.6,50 44.8,47.3 44.8,44.7 L 44.8,23.8 C 44.8,21.1 43.7,18.5 39.5,18.5 L 39.5,18.5 5.3,18.5 Z"
     id="path5"
     inkscape:connector-curvature="0"
     style="fill:#59b4d9" /><path
     d="M 31.5,18.5 31.5,18.5 5.3,18.5 5.3,18.5 C 1.4,18.5 0,20.8 0,23.8 L 0,44.7 C 0,47.3 1.6,50 4.6,50 L 11.3,50 31.5,18.5 Z"
     id="path7"
     inkscape:connector-curvature="0"
     style="opacity:0.15;fill:#ffffff" /><path
     d="M 16.4,27.1 22.2,21.3 28,27.1 23.9,27.1 23.9,31.3 20.4,31.3 20.4,27.1 C 20.4,27.1 16.4,27.1 16.4,27.1 Z M 5.7,35.9 5.7,32.5 11.7,32.5 11.7,28.5 17.3,34.1 11.7,39.7 11.7,35.8 5.7,35.8 5.7,35.9 Z M 22.2,47.2 16.3,41.3 20.4,41.3 20.4,37.2 23.9,37.2 23.9,41.3 28.1,41.3 22.2,47.2 Z M 38.7,35.9 32.7,35.9 32.7,39.9 27,34.2 32.7,28.5 32.7,32.5 38.7,32.5 38.7,35.9 Z"
     id="path9"
     inkscape:connector-curvature="0"
     style="fill:#ffffff" /></svg>
